X:18097
T:Va-t-en, va-t-en!
R:Bourre  3 temps
O:France
M:3/8
L:1/8
Q:1/8=220
K:C
eee|fed|dc2|eee|fed|g3:|
|:cde|d2c/2B/2|AG2|cde|fed|g3|
cde|d2c/2B/2|AG2|cde|fed|c3:|
